X:1
T:Title
L:1/8
M:11/4
K:F
V:1 treble nm="Choir Aahs"
V:1
 D4 A4 G2 B2 A2 G2 F2 E4 |[M:8/4] ^c4 B2 A2 A2 G2 A4 |[M:10/4] A4 d2 ^c2 B2 A2 G2 F2 E4 | %3
[M:8/4] G4 F2 D2 E2 E2 D4 |[M:10/4] A4 F2 D2 A2 A2 G2 F2 E4 |[M:8/4] ^c4 B2 A2 A2 G2 A4 | %6
[M:10/4] d4 ^c2 A2 B2 G2 A2 F2 E4 | A4 F2 G2 E2 E2 D8 |] %8

